svgs/light/square-q.svg

<svg xmlns="http://www.w3.org/2000/svg" viewBox="0 0 448 512"><!-- Font Awesome Pro 6.0.0-alpha2 by @fontawesome - https://fontawesome.com License - https://fontawesome.com/license (Commercial License) --><path d="M384 32H64C28.654 32 0 60.654 0 96V416C0 451.346 28.654 480 64 480H384C419.346 480 448 451.346 448 416V96C448 60.654 419.346 32 384 32ZM416 416C416 433.645 401.645 448 384 448H64C46.355 448 32 433.645 32 416V96C32 78.355 46.355 64 64 64H384C401.645 64 416 78.355 416 96V416ZM224 128C153.406 128 96 185.422 96 256S153.406 384 224 384C253.523 384 280.4 373.551 302.076 356.701L324.688 379.312C327.812 382.438 331.906 384 336 384S344.188 382.438 347.312 379.312C353.562 373.062 353.562 362.937 347.312 356.688L324.699 334.074C341.551 312.396 352 285.52 352 256C352 185.422 294.594 128 224 128ZM302.082 311.457L267.312 276.687C261.062 270.437 250.937 270.437 244.688 276.687S238.438 293.062 244.688 299.312L279.457 334.082C263.762 345.266 244.699 352 224 352C171.062 352 128 308.938 128 256S171.062 160 224 160S320 203.062 320 256C320 276.699 313.266 295.762 302.082 311.457Z"/></svg>

<svg xmlns="http://www.w3.org/2000/svg" viewBox="0 0 448 512"><!--! Font Awesome Pro 6.3.0 by @fontawesome - https://fontawesome.com License - https://fontawesome.com/license (Commercial License) Copyright 2023 Fonticons, Inc. --><path d="M384 32H64C28.65 32 0 60.65 0 96v320c0 35.35 28.65 64 64 64h320c35.35 0 64-28.65 64-64V96C448 60.65 419.3 32 384 32zM416 416c0 17.64-14.36 32-32 32H64c-17.64 0-32-14.36-32-32V96c0-17.64 14.36-32 32-32h320c17.64 0 32 14.36 32 32V416zM224 128C153.4 128 96 185.4 96 256s57.41 128 128 128c29.52 0 56.4-10.45 78.08-27.3l22.61 22.61C327.8 382.4 331.9 384 336 384s8.188-1.562 11.31-4.688c6.25-6.25 6.25-16.38 0-22.62l-22.61-22.61C341.6 312.4 352 285.5 352 256C352 185.4 294.6 128 224 128zM302.1 311.5l-34.77-34.77c-6.25-6.25-16.38-6.25-22.62 0s-6.25 16.38 0 22.62l34.77 34.77C263.8 345.3 244.7 352 224 352c-52.94 0-96-43.06-96-96s43.06-96 96-96s96 43.06 96 96C320 276.7 313.3 295.8 302.1 311.5z"/></svg>
